svgs/sharp-solid/file-audio.svg

<svg xmlns="http://www.w3.org/2000/svg" viewBox="0 0 384 512"><!--! Font Awesome Pro 6.6.0 by @fontawesome - https://fontawesome.com License - https://fontawesome.com/license (Commercial License) Copyright 2024 Fonticons, Inc. --><path d="M224 0L0 0 0 512l384 0 0-352-160 0L224 0zm32 0l0 128 128 0L256 0zm-1.8 447.9l-15.5-28C268.1 403.5 288 372.1 288 336s-19.9-67.5-49.4-83.9l15.5-28C293.4 245.9 320 287.9 320 336s-26.6 90.1-65.8 111.9zm-31.1-56l-15.5-28c9.8-5.5 16.5-15.9 16.5-28s-6.6-22.5-16.5-28l15.5-28C242.7 291 256 311.9 256 336s-13.3 45-32.9 56zM64 376l0-80 56 0 40-40 16 0 0 160-16 0-40-40-56 0z"/></svg>

<svg xmlns="http://www.w3.org/2000/svg" viewBox="0 0 384 512"><!--! Font Awesome Pro 6.4.0 by @fontawesome - https://fontawesome.com License - https://fontawesome.com/license (Commercial License) Copyright 2023 Fonticons, Inc. --><path d="M224 0H0V512H384V160H224V0zm32 0V128H384L256 0zm-1.8 447.9l-15.5-28C268.1 403.5 288 372.1 288 336s-19.9-67.5-49.4-83.9l15.5-28C293.4 245.9 320 287.9 320 336s-26.6 90.1-65.8 111.9zm-31.1-56l-15.5-28c9.8-5.5 16.5-15.9 16.5-28s-6.6-22.5-16.5-28l15.5-28C242.7 291 256 311.9 256 336s-13.3 45-32.9 56zM64 376V296h56l40-40h16V416H160l-40-40H64z"/></svg>
